svgs/thin/drumstick.svg

<svg xmlns="http://www.w3.org/2000/svg" viewBox="0 0 512 512"><!--! Font Awesome Pro 6.3.0 by @fontawesome - https://fontawesome.com License - https://fontawesome.com/license (Commercial License) Copyright 2023 Fonticons, Inc. --><path d="M511.1 169.2c0-43.31-16.53-86.58-49.6-119.6c-32.99-33.06-76.32-49.59-119.6-49.59c-43.29 0-86.53 16.51-119.6 49.57C187.7 84.95 160.1 127.1 160.1 191.1L160.1 277.9L119.5 318.3c-6.023 6.102-13.93 8.918-22.11 8.918c-13.69 0-18.34-7.244-37.06-7.244c-19.8 0-38.89 9.778-50.32 27.19c-6.721 10.11-9.99 21.63-9.99 33.09c0 22.44 16.85 59.58 59.13 59.58c4.924 0 9.876-.5732 14.72-1.683c-1.109 4.84-1.682 9.792-1.682 14.71c0 15.01 5.319 29.84 16.81 41.42c11.66 11.66 27.12 17.69 42.7 17.69c32.88 0 60.36-26.58 60.36-60.3c0-19.02-7.243-23.02-7.243-37.02c0-8.157 2.815-16.04 8.917-22.14l40.48-40.58l85.88-.0124c63.99 0 106.9-27.62 142.4-63.12C495.5 255.8 511.1 212.5 511.1 169.2zM495.9 169.2c0 39.19-14.91 78.4-44.72 108.3c-40.41 40.41-80.86 58.43-131.2 58.43l-112.1 .0511C203.6 335.1 200 339.6 200 343.1C200 348.4 203.6 352 208 352h3.549L182.4 381.3c-8.952 8.955-13.62 20.86-13.62 33.47c0 17.67 7.218 21.24 7.218 36.86C175.1 476.4 155.9 496 131.7 496c-23.2 0-43.5-17.88-43.5-43.07c0-7.879 1.695-10.95 1.695-14.74c0-6.099-4.731-15.1-16-15.1c-3.871 0-6.63 1.68-14.7 1.68c-31.1 0-43.11-27.04-43.11-43.57c0-11.35 8.592-44.29 44.29-44.29c15.73 0 19.15 7.24 37.04 7.24c12.88 0 24.77-4.857 33.39-13.59L160 300.5v3.492C160 308.4 163.6 312 168 312c4.417 0 8.001-3.579 8.004-7.996l.0802-112c0-50.37 18.01-90.78 58.43-131.1C263.5 31.95 301.9 16 342.8 16c40.9 0 79.34 15.94 108.3 44.91C480.1 90.75 495.9 129.1 495.9 169.2z"/></svg>

<svg xmlns="http://www.w3.org/2000/svg" viewBox="0 0 512 512"><!-- Font Awesome Pro 6.0.0-alpha2 by @fontawesome - https://fontawesome.com License - https://fontawesome.com/license (Commercial License) --><path d="M512 169.222C512 125.908 495.472 82.604 462.401 49.59C429.409 16.529 386.135 0 342.846 0C299.559 0 256.254 16.529 223.198 49.59C187.706 84.963 160.086 127.961 160.086 191.957V277.826L119.469 318.324C113.446 324.426 105.561 327.246 97.379 327.246C83.685 327.246 79.063 320.006 60.338 320.006C40.534 320.006 21.415 329.785 9.991 347.197C3.27 357.305 0 368.825 0 380.285C0 402.725 16.866 439.871 59.151 439.871C64.075 439.871 69.012 439.301 73.852 438.191C72.743 443.031 72.173 447.963 72.173 452.877C72.173 467.885 77.488 482.73 88.975 494.312C100.637 505.977 116.075 512 131.655 512C164.538 512 192.022 485.421 192.022 451.709C192.022 432.692 184.781 428.694 184.781 414.693C184.781 406.536 187.602 398.671 193.704 392.568L234.196 351.945H320.053C384.041 351.945 427.034 324.322 462.526 288.824C495.503 255.78 512 212.496 512 169.222ZM495.933 169.233C495.933 208.428 481.027 247.636 451.211 277.512C410.805 317.924 370.354 335.945 320.053 335.945L207.999 335.996C203.581 335.998 200 339.58 200 343.998V343.998C200 348.417 203.583 352 208.002 352H211.551L182.389 381.256C173.437 390.211 168.766 402.114 168.766 414.724C168.766 432.39 175.983 435.959 175.983 451.588C175.983 476.402 155.907 496 131.655 496C108.46 496 88.157 478.116 88.157 452.929C88.157 445.05 89.852 441.983 89.852 438.191C89.852 432.092 85.122 422.191 73.852 422.191C69.981 422.191 67.222 423.871 59.151 423.871C28.05 423.871 16.043 396.828 16.043 380.299C16.043 368.952 24.634 336.006 60.336 336.006C76.066 336.006 79.482 343.246 97.379 343.246C110.256 343.246 122.145 338.389 130.766 329.654L160 300.506V303.998C160 308.417 163.583 312 168.002 312H168.004C172.421 312 176.003 308.421 176.006 304.004L176.086 191.957C176.086 141.592 194.1 101.18 234.512 60.902C263.465 31.947 301.94 16 342.846 16C383.749 16 422.184 31.943 451.096 60.914C480.987 90.752 495.933 129.986 495.933 169.233Z "></path></svg>
